X: 60
T: No_159_Scalp_Song.krn
N: Derived from No_159_Scalp_Song.krn
%%abc-version 2.0
%%abcx-abcm2ps-target-version 5.9.1 (29 Sep 2008)
%%abc-creator hum2abc beta
%%abcx-conversion-date 2019/03/15 08:29:13
%%humdrum-veritas 2556539390
%%humdrum-veritas-data 104933590
%%linebreak <none>
%%barnumbers 0
L: 1/8
M: 3/4
%%staves {1 2}
V: 1 clef=bass
V: 2 clef=bass
K: D
[V:1] [K:clef=bass][M:3/4]B,D DB, B,3/D/ ||  
[V:2] [K:clef=bass][M:3/4](3!accent!G,, z G,, (3!accent!G,, z G,, (3!accent!G,, z G,, ||  
[V:1] [M:2/4]B,B,B,2 | 
[V:2] [M:2/4]z4 | 
[V:1] B,B, B,A, | 
[V:2] z4 | 
[V:1] G,E, E,E, | 
[V:2] z4 | 
[V:1] G,E,-E,2 | 
[V:2] z4 | 
[V:1] G,G, G,/E,/E, | 
[V:2] z4 | 
[V:1] E,E,E,2 | 
[V:2] z4 | 
[V:1] E,/E,3/ E,3/D,/ | 
[V:2] z4 | 
[V:1] B,,D, E,D, | 
[V:2] z4 | 
[V:1] B,,B,,B,,2 | 
[V:2] z4 | 
[V:1] B,,4 |]  
[V:2] z4 |]  



